icon/lg/sidekiq-icon.svg

<?xml version="1.0" encoding="UTF-8"?>
<svg viewBox="0 0 256 280" version="1.1" xmlns="http://www.w3.org/2000/svg" xmlns:xlink="http://www.w3.org/1999/xlink" preserveAspectRatio="xMidYMid" height="1em" width="1em">
  <g>
    <path d="M70.8815851,129.427786 C70.8815851,129.427786 67.6702779,128.762087 66.7270968,129.046983 C65.7839157,129.33188 60.3971164,128.386926 58.0335495,126.677545 C55.6699826,124.973806 53.3092227,126.206478 51.1365376,124.8779 C48.9666597,123.549322 45.6571046,123.738313 43.2037109,123.645228 C40.7475101,123.552143 37.6288368,123.738313 36.4947738,125.255882 C35.3607108,126.77063 30.9227069,131.419243 29.3170533,133.311973 C27.7113998,135.207524 21.1933446,142.030943 18.6417029,143.071804 C18.6417029,143.071804 19.3013682,144.118305 18.9252186,144.874269 C18.546262,145.635875 18.8297777,147.81068 18.8297777,148.572286 C18.8297777,149.333891 19.0178525,150.560922 18.3609942,151.322527 C17.6957147,152.081311 17.3195651,153.311163 17.3195651,153.785051 C17.3195651,154.258939 16.5616517,155.965498 17.3195651,158.241852 C18.0746714,160.518205 18.7343368,163.073814 15.6184706,162.032954 C12.4997974,160.992093 13.1622698,158.148766 10.6134351,158.05004 C8.06460051,157.956955 4.75785243,158.05004 3.81186423,154.546656 C2.86306896,151.03763 1.07214769,145.066081 0.693190997,144.118305 C0.31704139,143.173351 -1.00509641,138.812455 1.45110438,135.021354 C3.90730518,131.230252 4.37889573,128.480011 4.75785243,127.62532 C5.13400204,126.773451 6.93053744,121.368875 8.24986822,120.60727 C9.57200602,119.848484 9.09760838,117.479046 9.85552175,116.438186 C10.610628,115.394505 10.3271123,113.687945 10.7987028,112.740169 C11.2702934,111.792393 11.4611753,109.044973 12.1208406,106.960431 C12.7833131,104.875889 14.9559982,101.64894 16.278136,99.9452012 C17.6002738,98.241462 18.3581871,95.6830321 18.3581871,94.828342 C18.3581871,93.9736512 17.8865966,92.1768272 20.0564746,90.6592584 C22.2263525,89.1416896 26.1001321,84.2138209 26.4790887,83.4550365 C26.4790887,83.266046 26.4790887,79.7598411 26.2882069,78.5271686 C26.1001321,77.2944967 25.8166163,76.1577299 27.0433131,75.6838424 C28.2756242,75.2071341 29.9739116,74.1634527 29.9739116,74.1634527 C29.9739116,74.1634527 28.7949352,72.6487041 26.2432935,71.3680794 C23.6916517,70.0902749 16.0395336,61.4164374 15.3321477,56.2995784 C14.6219548,51.1798987 14.3384391,43.0758546 21.2831714,40.2325283 C28.2279037,37.3863813 35.8772148,35.8236802 37.0140849,35.6826421 C38.1481478,35.5416041 42.1145613,34.6869138 43.6753014,35.8236802 C43.6753014,35.8236802 41.9742069,35.5416041 41.2668211,35.8236802 C40.5566281,36.108577 44.6633959,35.9675389 45.6571046,37.1043053 C45.6571046,37.1043053 43.6753014,36.5373325 42.5412384,36.6783705 C41.4099825,36.8194085 44.5258487,38.1000336 45.0928801,39.095762 C45.6571046,40.0914903 47.7848762,40.8023219 47.5013605,42.3678438 C47.2206518,43.930545 47.0774904,46.3479364 47.3581991,47.058768 C47.6445219,47.7695996 48.3519077,49.0502247 48.4950691,51.0388606 C48.6382305,53.0303173 49.2052621,55.7326056 49.7694865,57.0104099 C50.3365179,58.2910351 51.7540967,62.2711277 51.1870652,65.114454 C51.1870652,65.114454 51.7540967,66.5361171 54.5864471,63.2668561 C57.4216046,59.9947743 60.2567621,59.4278014 61.6715338,59.4278014 C63.0891125,59.4278014 65.2168842,58.0033175 66.6316558,58.5731111 C68.0520417,59.1429046 69.6127817,58.4320731 71.3110694,58.8580079 C73.0093563,59.2839427 80.0944431,58.8580079 81.6551833,58.2882143 C83.2103097,57.7184207 88.5971088,57.0075892 89.7283647,57.0075892 C90.8624275,57.0075892 88.3135926,55.1599913 90.4385576,53.7383281 C92.5663289,52.316665 88.1704314,51.6058334 91.4322661,47.4847028 C94.6884864,43.3607514 91.5698135,42.223985 91.0055887,41.3721154 C90.4413645,40.5174251 90.2982033,37.8151368 90.2982033,36.2524357 C90.2982033,34.6869138 89.8743328,30.7068212 89.8743328,30.7068212 L90.4413645,29.9959896 C90.4413645,29.9959896 89.9838092,29.2400258 89.5346753,28.9720536 C89.0883489,28.7040814 88.6420218,27.0906066 88.2883292,26.0158969 C87.9262151,24.9411873 83.9991005,19.1163176 82.8397743,18.2221365 C81.6776398,17.322314 81.5007938,15.982453 81.6776398,14.7272147 C81.8572934,13.4691556 82.7471399,12.3972668 82.5702939,11.0517641 C82.3906403,9.7090823 82.4804671,7.9178996 82.3906403,7.2916908 C82.3036204,6.66266129 82.5702939,2.90258795 83.3759274,2.54435141 C83.3759274,2.54435141 83.9991005,2.27355843 84.2685808,3.16773941 C84.2685808,3.16773941 83.8194469,0.0338748378 84.8019278,0.0338748378 C84.8019278,0.0338748378 85.9640616,-0.324361707 86.4103879,1.28911313 C86.8539081,2.90258795 87.3030421,3.79676893 87.3928688,4.2452698 C87.4826949,4.69377067 87.8391952,5.407423 87.8391952,5.407423 C87.8391952,5.407423 88.8188685,4.96456365 89.624502,5.31997944 C90.4273294,5.67821598 90.9662901,6.03645253 90.9662901,6.4849534 C90.9662901,6.93345427 90.9662901,6.12671685 91.9487703,6.12671685 C92.9284436,6.12671685 93.8239039,5.85592387 94.0933843,6.84318994 C94.3572502,7.82763523 94.5397114,8.54692907 94.6267306,9.53137438 C94.7193643,10.5158197 94.8962109,11.3225571 95.2527112,12.0390302 C95.6120184,12.7555033 96.1425577,14.0079209 96.1425577,15.71166 C96.1425577,17.4153991 96.7713453,20.5492637 97.038018,21.9850307 C97.3046915,23.4179769 100.341959,28.9720536 100.341959,28.9720536 C100.341959,28.9720536 104.98488,29.8690554 107.126687,29.4205545 C109.271301,28.9720536 113.018762,29.7787911 112.575242,31.7505024 C112.128916,33.7193931 111.862242,39.5442628 111.682589,44.1138944 C111.502935,48.6835259 110.787129,57.5519959 110.074129,60.6886812 C109.358321,63.8225458 104.98488,71.9773635 103.199573,73.3200454 C101.417074,74.6655483 99.4493055,75.5597293 94.5397114,77.8896771 C89.6273096,80.2196249 83.9120813,82.8175451 83.9120813,82.8175451 C83.9120813,82.8175451 86.9493487,87.1163835 87.6623485,87.3871767 C88.3753491,87.6551484 88.2883292,86.7609674 89.1781757,87.1163835 C89.6216952,87.2940912 91.1627857,87.9005551 90.1831124,87.4971861 C90.1810071,87.5345892 95.5621735,88.9170062 95.5621735,88.9170062 C96.077851,88.9067746 96.3969811,88.81311 96.3327394,88.507531 C96.063143,87.2560342 97.3156428,85.6437459 97.8492185,85.2829538 C98.3856031,84.9249805 97.0460463,86.8952428 97.8492185,87.7887663 C98.6551996,88.6879274 110.197292,85.2575855 109.981054,85.8720595 C109.767623,86.4865328 110.607304,86.5344507 111.343077,85.9566201 C112.073233,85.3816077 115.131467,83.383159 117.310704,83.3916154 C119.495558,83.4028898 124.438157,83.8397862 125.763672,83.3549719 C127.089187,82.8729771 133.115789,79.1410355 135.129337,78.1544956 C137.137268,77.1623176 144.076565,77.2581533 147.005617,75.2794354 C149.934668,73.2978988 156.385322,68.661159 159.109368,66.9727657 C161.830606,65.2871911 182.025057,52.8962449 186.332981,52.2225788 C190.640906,51.5489127 200.967007,47.4618171 202.736234,46.1962269 C204.50546,44.9334553 210.0715,41.8582682 211.186393,40.8942773 C212.304095,39.9302865 217.886986,42.3797252 220.79638,46.5316506 C220.79638,46.5316506 226.471944,43.7439695 227.696361,43.6368594 C228.917969,43.5297493 231.181455,41.9484662 232.916981,40.6152274 C234.655316,39.2791699 239.889978,35.7417183 242.178738,34.6226997 C242.178738,34.6226997 243.335756,34.1125174 243.557612,33.2979169 C243.779467,32.4833166 244.703396,30.9274016 245.534651,31.2487318 C245.534651,31.2487318 247.357235,28.9148593 248.095817,29.6167123 C248.095817,29.6167123 249.696545,28.0974402 250.614857,28.9233154 C250.614857,28.9233154 251.521937,29.0529749 251.828041,29.5434264 C251.828041,29.5434264 252.979442,28.6104411 253.513018,29.3179315 C253.513018,29.3179315 254.344273,28.3764901 255.745612,29.4814153 C255.745612,29.4814153 256.677966,30.6342581 254.962098,32.7539105 C254.962098,32.7539105 253.886521,33.3120104 253.133898,34.8679254 C252.386891,36.4238404 250.294711,39.3806427 248.003143,40.5391228 C245.705958,41.697603 243.054927,43.7326948 243.153217,47.8930762 C243.254316,52.0562763 241.487898,56.8959612 237.132233,55.8079481 C232.776567,54.7199351 228.957286,56.1884708 225.14362,58.2714802 C225.14362,58.2714802 224.809433,60.4700558 224.441546,60.9943315 C224.070852,61.5157885 222.366216,61.3466673 220.02129,62.8208404 C217.679172,64.2921948 216.24975,64.8446574 214.401892,66.2314512 C212.551225,67.618245 212.155255,68.5540489 210.59946,69.2784514 C209.043664,70.0084911 207.296905,71.9872089 206.266261,73.0836784 C205.23,74.1773284 201.419143,76.8691741 196.914637,79.0677499 C192.407324,81.2691438 173.881001,87.9015141 169.598351,91.3882288 C165.310084,94.8749442 157.4272,101.121154 145.463863,106.995297 C144.966795,107.237704 144.506234,107.474473 144.037249,107.708424 C143.312709,108.370816 133.025924,117.813416 129.504321,120.282585 C125.853537,122.841953 124.393224,123.208382 123.297989,129.062794 C122.579066,132.921576 119.644397,139.150873 117.616808,144.111762 C117.170289,148.940172 116.914734,153.630467 116.805211,156.488615 C116.664796,160.183913 111.949669,196.93113 110.815117,200.905478 C109.677758,204.885464 109.396928,207.870453 109.964204,210.996376 C110.531479,214.116662 109.11329,217.81196 107.414272,220.937883 C105.709636,224.063807 102.876067,231.451585 103.300119,235.713439 C103.724172,239.975293 104.151033,241.539664 102.876067,242.10622 C101.598292,242.672776 97.4869485,242.53466 96.9224809,243.955278 C96.3552057,245.375896 94.2293258,245.375896 94.2293258,245.375896 C94.2293258,245.375896 93.5918434,251.715123 94.7039281,252.831323 C95.8188211,253.941885 99.7504346,258.612449 94.967908,262.090708 C90.1797648,265.574605 85.1332584,268.663885 83.9565823,271.096412 C82.7742904,273.523301 80.1513426,274.907276 79.1684392,275.69369 C78.1855358,276.480103 76.41631,277.599121 76.2843204,278.055749 C76.1551384,278.518013 74.7144832,279.372075 73.3356103,278.980278 C73.3356103,278.980278 72.1561267,279.501735 70.9092434,278.120578 C70.9092434,278.120578 68.8816543,278.317887 68.4856846,277.007198 C68.4856846,277.007198 66.7810495,277.134039 66.5844688,275.823349 C66.5844688,275.823349 65.7307471,273.917917 68.289104,273.131504 C70.8418444,272.339453 74.9082558,266.623156 75.0402454,265.704265 C75.1694267,264.785373 77.0734511,259.066257 78.5141064,256.704198 C79.9547623,254.336502 81.8559777,248.160759 82.1199576,242.512111 C82.1199576,242.512111 81.5330237,242.120313 81.5330237,241.531208 C81.5330237,240.936465 81.5667232,238.22207 81.8503611,237.181975 C82.1368073,236.136242 82.7012749,233.108972 82.3249627,228.655448 C81.945843,224.20756 82.8922386,216.912799 82.3249627,211.892718 C81.7576876,206.872638 82.8360728,172.022396 84.3469353,167.475855 C85.8606067,162.929313 86.4250743,161.889218 86.3324,160.088077 C86.2369182,158.286937 86.3324,152.793317 86.8996759,152.511448 C87.4641434,152.22676 87.5596253,145.312523 87.3714692,144.551477 C87.1805055,143.796069 83.1169024,140.954833 82.5524349,138.96484 C82.5524349,138.96484 82.6451084,141.04785 82.5524349,141.806076 C82.456953,142.564303 82.3642795,141.617224 80.850608,140.004935 C79.334129,138.392647 76.5005587,134.984855 76.3124033,132.521323 C75.9742125,132.338233 71.7870986,129.864813 71.7870986,129.864813 C71.2661556,129.887571 71.0079035,129.642164 70.8815851,129.427786 Z" fill="#991B21"/>
    <path d="M90.1960921,87.4311756 C89.7675989,95.1243965 71.7764376,130.165013 71.7764376,130.165013 C71.1476095,133.265477 71.2783834,136.15962 71.5955795,137.880844 C72.357964,142.00726 68.5460417,148.196883 68.5460417,148.196883 L72.6974201,150.381622 C78.3040072,147.131363 75.8999919,137.383413 75.8999919,137.383413 C75.4353266,135.639579 75.3935905,133.96075 75.630096,132.383668 L75.6746153,132.428888 C75.6746153,132.428888 96.0781391,91.9871904 95.0903781,88.801937 C95.0875957,88.8075892 92.6557563,88.4571266 90.1960921,87.4311756 L90.1960921,87.4311756 L90.1960921,87.4311756 Z" fill="#000000"/>
  </g>
</svg>

<svg width="256" height="280" xmlns="http://www.w3.org/2000/svg" preserveAspectRatio="xMidYMid"><path d="M70.882 129.428s-3.212-.666-4.155-.381c-.943.285-6.33-.66-8.693-2.37-2.364-1.703-4.725-.47-6.897-1.8-2.17-1.328-5.48-1.139-7.933-1.232-2.456-.093-5.575.093-6.71 1.61-1.133 1.516-5.571 6.164-7.177 8.057-1.606 1.896-8.124 8.719-10.675 9.76 0 0 .66 1.046.283 1.802-.379.762-.095 2.937-.095 3.698 0 .762.188 1.989-.469 2.75-.665.76-1.041 1.99-1.041 2.463 0 .474-.758 2.18 0 4.457.755 2.276 1.414 4.832-1.702 3.791-3.118-1.04-2.456-3.884-5.005-3.983-2.548-.093-5.855 0-6.801-3.503-.949-3.51-2.74-9.48-3.119-10.429-.376-.945-1.698-5.306.758-9.097 2.456-3.79 2.928-6.541 3.307-7.396.376-.852 2.173-6.256 3.492-7.018 1.322-.759.848-3.128 1.606-4.169.755-1.043.471-2.75.943-3.698.471-.948.662-3.695 1.322-5.78.662-2.084 2.835-5.311 4.157-7.015 1.322-1.704 2.08-4.262 2.08-5.117 0-.854-.471-2.651 1.698-4.169 2.17-1.517 6.044-6.445 6.423-7.204 0-.189 0-3.695-.19-4.928-.189-1.233-.472-2.37.754-2.843 1.233-.477 2.93-1.52 2.93-1.52s-1.178-1.515-3.73-2.796C23.692 70.09 16.04 61.416 15.333 56.3c-.711-5.12-.995-13.224 5.95-16.067 6.945-2.847 14.594-4.41 15.731-4.55 1.134-.141 5.1-.996 6.661.14 0 0-1.7-.281-2.408 0-.71.286 3.396.145 4.39 1.281 0 0-1.982-.567-3.116-.426-1.131.141 1.985 1.422 2.552 2.418.564.995 2.692 1.706 2.408 3.272-.28 1.563-.424 3.98-.143 4.69.287.712.994 1.992 1.137 3.98.143 1.992.71 4.695 1.274 5.972.568 1.281 1.985 5.261 1.418 8.104 0 0 .567 1.422 3.4-1.847 2.835-3.272 5.67-3.84 7.085-3.84 1.417 0 3.545-1.424 4.96-.854 1.42.57 2.98-.14 4.68.285 1.697.426 8.782 0 10.343-.57 1.555-.57 6.942-1.28 8.073-1.28 1.134 0-1.414-1.848.71-3.27 2.128-1.421-2.268-2.132.994-6.253 3.256-4.124.138-5.261-.426-6.113-.565-.855-.708-3.557-.708-5.12 0-1.565-.424-5.545-.424-5.545l.567-.711s-.457-.756-.906-1.024c-.447-.268-.893-1.881-1.247-2.956-.362-1.075-4.289-6.9-5.448-7.794-1.162-.9-1.34-2.24-1.162-3.495.18-1.258 1.07-2.33.892-3.675-.18-1.343-.09-3.134-.18-3.76-.086-.63.18-4.39.986-4.748 0 0 .623-.27.893.624 0 0-.45-3.134.533-3.134 0 0 1.162-.358 1.608 1.255.444 1.614.893 2.508.983 2.956.09.449.446 1.162.446 1.162s.98-.442 1.786-.087c.802.358 1.341.716 1.341 1.165 0 .448 0-.358.983-.358.98 0 1.875-.271 2.144.716.264.985.447 1.704.534 2.688.092.985.27 1.792.626 2.508.359.717.89 1.969.89 3.673 0 1.703.628 4.837.895 6.273.267 1.433 3.304 6.987 3.304 6.987s4.643.897 6.785.449c2.144-.449 5.892.358 5.448 2.33-.446 1.968-.713 7.793-.892 12.363-.18 4.57-.896 13.438-1.609 16.575-.716 3.134-5.09 11.288-6.874 12.631-1.783 1.346-3.75 2.24-8.66 4.57a849.844 849.844 0 0 1-10.628 4.928s3.037 4.298 3.75 4.57c.713.267.626-.627 1.516-.272.444.178 1.985.785 1.005.381-.002.038 5.38 1.42 5.38 1.42.515-.01.834-.104.77-.41-.27-1.251.983-2.863 1.516-3.224.537-.358-.803 1.612 0 2.506.806.899 12.348-2.531 12.132-1.917-.213.615.626.662 1.362.085.73-.575 3.788-2.574 5.968-2.565 2.185.01 7.127.448 8.453-.037 1.325-.482 7.352-4.214 9.365-5.2 2.008-.993 8.948-.897 11.877-2.876 2.929-1.981 9.38-6.618 12.103-8.306 2.722-1.686 22.916-14.077 27.224-14.75 4.308-.674 14.634-4.761 16.403-6.027 1.77-1.263 7.335-4.338 8.45-5.302 1.118-.964 6.701 1.486 9.61 5.638 0 0 5.676-2.788 6.9-2.895 1.222-.107 3.485-1.689 5.221-3.022 1.738-1.336 6.973-4.873 9.262-5.992 0 0 1.157-.51 1.379-1.325.221-.815 1.145-2.37 1.977-2.05 0 0 1.822-2.333 2.56-1.631 0 0 1.602-1.52 2.52-.694 0 0 .907.13 1.213.62 0 0 1.151-.933 1.685-.225 0 0 .831-.942 2.233.163 0 0 .932 1.153-.784 3.273 0 0-1.075.558-1.828 2.114-.747 1.556-2.84 4.513-5.13 5.671-2.298 1.159-4.95 3.194-4.85 7.354.1 4.163-1.666 9.003-6.022 7.915-4.355-1.088-8.175.38-11.988 2.463 0 0-.335 2.2-.702 2.723-.371.522-2.076.353-4.42 1.827-2.343 1.471-3.772 2.024-5.62 3.41-1.85 1.387-2.247 2.323-3.803 3.047-1.555.73-3.302 2.71-4.333 3.806-1.036 1.093-4.847 3.785-9.351 5.984-4.508 2.201-23.034 8.834-27.317 12.32-4.288 3.487-12.17 9.733-24.134 15.607-.497.243-.958.48-1.427.713-.724.663-11.011 10.105-14.533 12.575-3.65 2.559-5.11 2.925-6.206 8.78-.719 3.859-3.654 10.088-5.681 15.049a243.782 243.782 0 0 0-.812 12.377c-.14 3.695-4.855 40.442-5.99 44.416-1.137 3.98-1.418 6.965-.85 10.091.566 3.12-.852 6.816-2.55 9.942-1.705 3.126-4.539 10.514-4.115 14.775.424 4.262.851 5.827-.424 6.393-1.278.567-5.39.429-5.954 1.85-.567 1.42-2.693 1.42-2.693 1.42s-.637 6.34.475 7.455c1.115 1.11 5.046 5.781.264 9.26-4.788 3.484-9.835 6.573-11.011 9.005-1.183 2.427-3.806 3.811-4.789 4.598-.982.786-2.752 1.905-2.884 2.362-.129.462-1.57 1.316-2.948.924 0 0-1.18.522-2.427-.86 0 0-2.027.198-2.423-1.113 0 0-1.705.127-1.902-1.184 0 0-.853-1.905 1.705-2.691 2.553-.793 6.62-6.509 6.751-7.428.13-.919 2.033-6.638 3.474-9 1.44-2.367 3.342-8.543 3.606-14.192 0 0-.587-.392-.587-.98 0-.596.034-3.31.317-4.35.287-1.046.851-4.073.475-8.527-.38-4.447.567-11.742 0-16.762s.511-39.87 2.022-44.417c1.514-4.547 2.078-5.587 1.985-7.388-.095-1.801 0-7.295.568-7.577.564-.284.66-7.198.471-7.96-.19-.755-4.254-3.596-4.819-5.586 0 0 .093 2.083 0 2.841-.095.758-.188-.189-1.701-1.801-1.517-1.612-4.35-5.02-4.539-7.484-.338-.183-4.525-2.656-4.525-2.656-.52.023-.78-.223-.905-.437Z" fill="#991B21"/><path d="M90.196 87.431c-.428 7.693-18.42 42.734-18.42 42.734-.628 3.1-.498 5.995-.18 7.716.762 4.126-3.05 10.316-3.05 10.316l4.151 2.185c5.607-3.25 3.203-12.999 3.203-12.999a12.21 12.21 0 0 1-.27-5l.045.046S96.078 91.987 95.09 88.802c-.002.006-2.434-.345-4.894-1.37Z"/></svg>
